img/clock-sqare-icon.svg

<svg width="42" height="42" viewBox="0 0 42 42" fill="none" xmlns="http://www.w3.org/2000/svg">
<path fill-rule="evenodd" clip-rule="evenodd" d="M28.5855 4.81287H13.4147C8.12798 4.81287 4.81348 8.55612 4.81348 13.8534V28.1474C4.81348 33.4446 8.11048 37.1879 13.4147 37.1879H28.5837C33.888 37.1879 37.1885 33.4446 37.1885 28.1474V13.8534C37.1885 8.55612 33.888 4.81287 28.5855 4.81287Z" stroke="#F58020" stroke-width="1.5" stroke-linecap="round" stroke-linejoin="round"/>
<path d="M26.9342 24.531L21 20.9908V13.359" stroke="#F58020" stroke-width="1.5" stroke-linecap="round" stroke-linejoin="round"/>
</svg>

<svg width="42" height="42" fill="none" xmlns="http://www.w3.org/2000/svg"><path clip-rule="evenodd" d="M28.585 4.813h-15.17c-5.287 0-8.602 3.743-8.602 9.04v14.294c0 5.298 3.297 9.04 8.602 9.04h15.169c5.304 0 8.604-3.742 8.604-9.04V13.853c0-5.297-3.3-9.04-8.603-9.04z" stroke="#F58020" stroke-width="1.5" stroke-linecap="round" stroke-linejoin="round"/><path d="M26.934 24.531L21 20.991v-7.632" stroke="#F58020" stroke-width="1.5" stroke-linecap="round" stroke-linejoin="round"/></svg>
